svg/cart-icon.svg

<svg xmlns="http://www.w3.org/2000/svg" preserveAspectRatio="xMidYMid" width="22.03" height="20" viewBox="0 0 22.03 20"><defs/><path d="M21.975 2.111c-.452 2.953-.903 5.907-1.357 8.86-.153 1.096-1.095 2.005-2.14 2.06-4.609.002-9.219 0-13.828.001a1.592 1.592 0 0 1-1.206-.544c-.35-.395-.486-.973-.395-1.501.426-2.792.854-5.584 1.282-8.376.035-.258-.17-.532-.424-.526C2.8 2.061 1.693 2.061.586 2.049a.565.565 0 0 1-.556-.476C-.014 1.25.042.925.027.601A.584.584 0 0 1 .385.03c.077-.033.16-.036.242-.039h19.728c.544-.004 1.101.269 1.395.764.252.395.301.895.225 1.356zM4.97 15.566c.904-.216 1.904.287 2.316 1.167a2.363 2.363 0 0 1-.105 2.253c-.505.851-1.582 1.245-2.473.897-.9-.313-1.519-1.324-1.416-2.321.067-.961.787-1.811 1.678-1.996zm10.833-.001c.904-.212 1.896.299 2.307 1.175a2.383 2.383 0 0 1-.08 2.2c-.408.712-1.213 1.143-1.996 1.059a2.105 2.105 0 0 1-1.544-.944c-.412-.601-.497-1.427-.24-2.114.255-.696.859-1.234 1.553-1.376z" class="cls-1"/></svg>

<svg xmlns="http://www.w3.org/2000/svg" xmlns:xlink="http://www.w3.org/1999/xlink" preserveAspectRatio="xMidYMid" width="22.03" height="20" viewBox="0 0 22.03 20">
  <defs>
    <style>
      .cls-1 {
        fill: #fff;
        fill-rule: evenodd;
      }
    </style>
  </defs>
  <path d="M21.975,2.111 C21.523,5.064 21.072,8.018 20.618,10.971 C20.465,12.067 19.523,12.976 18.478,13.031 C13.869,13.033 9.259,13.031 4.650,13.032 C4.201,13.037 3.749,12.839 3.444,12.488 C3.094,12.093 2.958,11.515 3.049,10.987 C3.475,8.195 3.903,5.403 4.331,2.611 C4.366,2.353 4.161,2.079 3.907,2.085 C2.800,2.061 1.693,2.061 0.586,2.049 C0.325,2.054 0.070,1.851 0.030,1.573 C-0.014,1.250 0.042,0.925 0.027,0.601 C0.014,0.354 0.164,0.113 0.385,0.030 C0.462,-0.003 0.545,-0.006 0.627,-0.009 C7.203,-0.009 13.779,-0.008 20.355,-0.009 C20.899,-0.013 21.456,0.260 21.750,0.755 C22.002,1.150 22.051,1.650 21.975,2.111 ZM4.970,15.566 C5.874,15.350 6.874,15.853 7.286,16.733 C7.637,17.432 7.593,18.326 7.181,18.986 C6.676,19.837 5.599,20.231 4.708,19.883 C3.808,19.570 3.189,18.559 3.292,17.562 C3.359,16.601 4.079,15.751 4.970,15.566 ZM15.803,15.565 C16.707,15.353 17.699,15.864 18.110,16.740 C18.444,17.423 18.414,18.287 18.030,18.940 C17.622,19.652 16.817,20.083 16.034,19.999 C15.422,19.942 14.839,19.590 14.490,19.055 C14.078,18.454 13.993,17.628 14.250,16.941 C14.505,16.245 15.109,15.707 15.803,15.565 Z" class="cls-1"/>
</svg>
